X:33
T:Blink o’er the burn, my sweet laddie. CJF.033
T:No.1. CJF.033
R:Air
C:J Smith
S:C.J.Fox MS, 1829/33, Beverley,E.Yorks.
N:The extra note at the start of section 3 is as in MS. – PJH.
B:Kidson Coll.Mitchell Lib.M1805
O:England
A:East Yorkshire
Z:vmp.P J Headford 2000 & 2008
M:6/8
L:1/8
Q:3/8=60
K:G
“p”d|”$”\
d>ed dbg|e2cc2e|d>ed dbg|fg^ga2d|!
d>ed dbg|ecB cde|dgb {b}aga|gdbHg2||!
” ff”b|bag gfe|f2bb2b|bag c’af|^de^e fga|!
bag gfe|=f2a c’af|gab ag^f|efg “>”fe” D.C.”d||!
K:C
g|” dol.”c’ba gfe|a2f dec|Bc^c def|ef^f gab|!
c’ba gfe|dag fed|cBA GAB|(d3″$”c2)|]

